envergo/static/images/calendar_light.svg

<svg width="134" height="134" viewBox="0 0 133 134" fill="none" xmlns="http://www.w3.org/2000/svg">
<path fill-rule="evenodd" clip-rule="evenodd" d="M127.598 39.6C126.688 39.6 125.948 38.8598 125.948 37.95C125.948 37.0401 126.688 36.3 127.598 36.3C128.508 36.3 129.248 37.0401 129.248 37.95C129.248 38.8598 128.508 39.6 127.598 39.6Z" fill="#CACAFB"/>
<path fill-rule="evenodd" clip-rule="evenodd" d="M48.3977 132C47.4879 132 46.7477 131.26 46.7477 130.35C46.7477 129.44 47.4879 128.7 48.3977 128.7C49.3076 128.7 50.0477 129.44 50.0477 130.35C50.0477 131.26 49.3076 132 48.3977 132Z" fill="#CACAFB"/>
<path fill-rule="evenodd" clip-rule="evenodd" d="M25.2977 16.5C24.3879 16.5 23.6477 15.7598 23.6477 14.85C23.6477 13.9401 24.3879 13.2 25.2977 13.2C26.2075 13.2 26.9477 13.9401 26.9477 14.85C26.9477 15.7598 26.2075 16.5 25.2977 16.5Z" fill="#CACAFB"/>
<path d="M38.4977 16.5C39.3439 16.5 40.0413 17.137 40.1366 17.9576L40.1477 18.15V23.1H92.9477V18.15C92.9477 17.2387 93.6865 16.5 94.5977 16.5C95.4439 16.5 96.1413 17.137 96.2366 17.9576L96.2477 18.15V23.1H107.798C112.234 23.1 115.853 26.6018 116.04 30.9921L116.048 31.35V74.25C116.048 75.1613 115.309 75.9 114.398 75.9C113.552 75.9 112.854 75.263 112.759 74.4424L112.748 74.25V46.2H104.498C103.586 46.2 102.848 45.4613 102.848 44.55C102.848 43.7038 103.485 43.0064 104.305 42.9111L104.498 42.9H112.748V31.35C112.748 28.7138 110.687 26.559 108.089 26.4084L107.798 26.4H96.2477V31.35C96.2477 32.2613 95.509 33 94.5977 33C93.7515 33 93.0541 32.363 92.9588 31.5424L92.9477 31.35V26.4H40.1477V31.35C40.1477 32.2613 39.409 33 38.4977 33C37.6516 33 36.9541 32.363 36.8588 31.5424L36.8477 31.35V26.4H25.2977C22.6616 26.4 20.5067 28.4607 20.3561 31.0591L20.3477 31.35V42.9H36.8477V41.25C36.8477 40.3387 37.5865 39.6 38.4977 39.6C39.3439 39.6 40.0413 40.237 40.1366 41.0576L40.1477 41.25V42.9H94.5977C95.509 42.9 96.2477 43.6387 96.2477 44.55C96.2477 45.3962 95.6108 46.0936 94.7902 46.1889L94.5977 46.2H40.1477V47.85C40.1477 48.7613 39.409 49.5 38.4977 49.5C37.6516 49.5 36.9541 48.863 36.8588 48.0424L36.8477 47.85V46.2H20.3477V100.65C20.3477 103.286 22.4084 105.441 25.0069 105.592L25.2977 105.6H71.4977C72.409 105.6 73.1477 106.339 73.1477 107.25C73.1477 108.096 72.5108 108.794 71.6902 108.889L71.4977 108.9H25.2977C20.8613 108.9 17.2427 105.398 17.0554 101.008L17.0477 100.65V31.35C17.0477 26.9136 20.5495 23.295 24.9399 23.1076L25.2977 23.1H36.8477V18.15C36.8477 17.2387 37.5865 16.5 38.4977 16.5Z" fill="#000091"/>
<path d="M78.0977 105.6C77.1865 105.6 76.4477 106.339 76.4477 107.25C76.4477 108.161 77.1865 108.9 78.0977 108.9C79.009 108.9 79.7477 108.161 79.7477 107.25C79.7477 106.339 79.009 105.6 78.0977 105.6Z" fill="#000091"/>
<path fill-rule="evenodd" clip-rule="evenodd" d="M50.0477 61.05C50.0477 58.3162 47.8315 56.1 45.0977 56.1H35.1977C32.4639 56.1 30.2477 58.3162 30.2477 61.05V67.65C30.2477 70.3838 32.4639 72.6 35.1977 72.6H45.0977C47.8315 72.6 50.0477 70.3838 50.0477 67.65V61.05ZM33.5477 61.05C33.5477 60.1387 34.2865 59.4 35.1977 59.4H45.0977C46.009 59.4 46.7477 60.1387 46.7477 61.05V67.65C46.7477 68.5613 46.009 69.3 45.0977 69.3H35.1977C34.2865 69.3 33.5477 68.5613 33.5477 67.65V61.05Z" fill="#000091"/>
<path fill-rule="evenodd" clip-rule="evenodd" d="M97.8977 56.1C100.632 56.1 102.848 58.3162 102.848 61.05V67.65C102.848 70.3838 100.632 72.6 97.8977 72.6H87.9977C85.2639 72.6 83.0477 70.3838 83.0477 67.65V61.05C83.0477 58.3162 85.2639 56.1 87.9977 56.1H97.8977ZM87.9977 59.4C87.0865 59.4 86.3477 60.1387 86.3477 61.05V67.65C86.3477 68.5613 87.0865 69.3 87.9977 69.3H97.8977C98.809 69.3 99.5477 68.5613 99.5477 67.65V61.05C99.5477 60.1387 98.809 59.4 97.8977 59.4H87.9977Z" fill="#000091"/>
<path fill-rule="evenodd" clip-rule="evenodd" d="M71.4977 56.1H61.5977C58.8639 56.1 56.6477 58.3162 56.6477 61.05V67.65C56.6477 70.3838 58.8639 72.6 61.5977 72.6H71.4977C74.2315 72.6 76.4477 70.3838 76.4477 67.65V61.05C76.4477 58.3162 74.2315 56.1 71.4977 56.1ZM61.5977 59.4H71.4977C72.409 59.4 73.1477 60.1387 73.1477 61.05V67.65C73.1477 68.5613 72.409 69.3 71.4977 69.3H61.5977C60.6865 69.3 59.9477 68.5613 59.9477 67.65V61.05C59.9477 60.1387 60.6865 59.4 61.5977 59.4Z" fill="#000091"/>
<path fill-rule="evenodd" clip-rule="evenodd" d="M45.0977 79.2C47.8315 79.2 50.0477 81.4162 50.0477 84.15V90.75C50.0477 93.4838 47.8315 95.7 45.0977 95.7H35.1977C32.4639 95.7 30.2477 93.4838 30.2477 90.75V84.15C30.2477 81.4162 32.4639 79.2 35.1977 79.2H45.0977ZM35.1977 82.5C34.2865 82.5 33.5477 83.2387 33.5477 84.15V90.75C33.5477 91.6613 34.2865 92.4 35.1977 92.4H45.0977C46.009 92.4 46.7477 91.6613 46.7477 90.75V84.15C46.7477 83.2387 46.009 82.5 45.0977 82.5H35.1977Z" fill="#000091"/>
<path fill-rule="evenodd" clip-rule="evenodd" d="M71.4977 79.2H61.5977C58.8639 79.2 56.6477 81.4162 56.6477 84.15V90.75C56.6477 93.4838 58.8639 95.7 61.5977 95.7H71.4977C74.2315 95.7 76.4477 93.4838 76.4477 90.75V84.15C76.4477 81.4162 74.2315 79.2 71.4977 79.2ZM61.5977 82.5H71.4977C72.409 82.5 73.1477 83.2387 73.1477 84.15V90.75C73.1477 91.6613 72.409 92.4 71.4977 92.4H61.5977C60.6865 92.4 59.9477 91.6613 59.9477 90.75V84.15C59.9477 83.2387 60.6865 82.5 61.5977 82.5Z" fill="#000091"/>
<path d="M107.53 93L106.521 94.0027C104.298 96.2161 102.585 98.0721 100.548 100.144L98.4783 98.4041L97.3877 97.4899L95.5477 99.6501L96.6383 100.564L99.7247 103.16L100.726 104L101.654 103.078C104.216 100.527 106.036 98.4933 108.539 96.0007L109.548 94.998L107.53 93Z" fill="#6A6AF4"/>
<path d="M85.5507 92.1642C85.5506 89.5525 85.5505 86.9408 85.5507 84.329C85.5507 83.9618 85.8698 83.6156 86.246 83.5751C86.309 83.5683 86.3729 83.5678 86.4364 83.5678C87.2889 83.5673 88.1414 83.5661 88.9938 83.5677C91.5161 83.5725 93.9556 83.1239 96.312 82.2312C97.6226 81.7347 98.8577 81.0868 100.049 80.352C100.701 79.9499 101.368 79.5723 102.018 79.1658C102.382 78.9377 102.717 78.9512 103.075 79.1681C104.027 79.7446 104.978 80.3243 105.942 80.8799C107.932 82.0262 110.061 82.8042 112.322 83.2238C113.39 83.4222 114.467 83.5445 115.554 83.5554C116.606 83.5659 117.657 83.5635 118.709 83.5677C119.123 83.5694 119.437 83.8083 119.524 84.1929C119.544 84.2824 119.546 84.3773 119.546 84.4698C119.548 88.0112 119.548 91.5527 119.547 95.0941C119.546 96.5476 119.553 98.0013 119.534 99.4546C119.517 100.733 119.343 101.995 119.044 103.239C118.35 106.115 116.985 108.646 115.066 110.889C113.184 113.088 110.937 114.848 108.454 116.32C106.687 117.367 104.84 118.242 102.906 118.935C102.663 119.022 102.432 119.021 102.189 118.934C100.281 118.253 98.4604 117.39 96.7158 116.366C95.0937 115.413 93.5682 114.327 92.167 113.072C90.2032 111.313 88.5674 109.299 87.3917 106.931C86.6128 105.363 86.0822 103.714 85.7964 101.986C85.6034 100.82 85.5426 99.6462 85.5481 98.4654C85.5577 96.365 85.5508 94.2646 85.5507 92.1642Z" stroke="#6A6AF4" stroke-width="3" stroke-miterlimit="10"/>
</svg>

<svg width="134" height="134" viewBox="0 0 133 134" fill="none" xmlns="http://www.w3.org/2000/svg"><path fill-rule="evenodd" clip-rule="evenodd" d="M127.598 39.6c-.91 0-1.65-.74-1.65-1.65 0-.91.74-1.65 1.65-1.65.91 0 1.65.74 1.65 1.65 0 .91-.74 1.65-1.65 1.65zm-79.2 92.4c-.91 0-1.65-.74-1.65-1.65 0-.91.74-1.65 1.65-1.65.91 0 1.65.74 1.65 1.65 0 .91-.74 1.65-1.65 1.65zm-23.1-115.5c-.91 0-1.65-.74-1.65-1.65 0-.91.74-1.65 1.65-1.65.91 0 1.65.74 1.65 1.65 0 .91-.74 1.65-1.65 1.65z" fill="#CACAFB"/><path d="M38.498 16.5a1.65 1.65 0 011.639 1.458l.01.192v4.95h52.8v-4.95a1.65 1.65 0 013.29-.192l.01.192v4.95h11.551a8.25 8.25 0 018.242 7.892l.008.358v42.9a1.65 1.65 0 01-3.289.192l-.011-.192V46.2h-8.25a1.65 1.65 0 01-.193-3.289l.193-.011h8.25V31.35a4.95 4.95 0 00-4.659-4.942l-.291-.008h-11.55v4.95a1.65 1.65 0 01-3.29.192l-.01-.192V26.4h-52.8v4.95a1.65 1.65 0 01-3.29.192l-.01-.192V26.4h-11.55a4.95 4.95 0 00-4.942 4.66l-.008.29V42.9h16.5v-1.65a1.65 1.65 0 013.289-.192l.01.192v1.65h54.45a1.65 1.65 0 01.193 3.289l-.192.011h-54.45v1.65a1.65 1.65 0 01-3.29.192l-.01-.192V46.2h-16.5v54.45a4.951 4.951 0 004.659 4.942l.29.008h46.2a1.65 1.65 0 01.193 3.289l-.192.011h-46.2a8.25 8.25 0 01-8.243-7.892l-.007-.358v-69.3a8.25 8.25 0 017.892-8.242l.358-.008h11.55v-4.95c0-.911.739-1.65 1.65-1.65zm39.6 89.1a1.65 1.65 0 100 3.3 1.65 1.65 0 000-3.3z" fill="#000091"/><path fill-rule="evenodd" clip-rule="evenodd" d="M50.048 61.05a4.95 4.95 0 00-4.95-4.95h-9.9a4.95 4.95 0 00-4.95 4.95v6.6a4.95 4.95 0 004.95 4.95h9.9a4.95 4.95 0 004.95-4.95v-6.6zm-16.5 0c0-.911.738-1.65 1.65-1.65h9.9c.911 0 1.65.739 1.65 1.65v6.6a1.65 1.65 0 01-1.65 1.65h-9.9a1.65 1.65 0 01-1.65-1.65v-6.6zm64.35-4.95a4.95 4.95 0 014.95 4.95v6.6a4.95 4.95 0 01-4.95 4.95h-9.9a4.95 4.95 0 01-4.95-4.95v-6.6a4.95 4.95 0 014.95-4.95h9.9zm-9.9 3.3a1.65 1.65 0 00-1.65 1.65v6.6c0 .911.739 1.65 1.65 1.65h9.9a1.65 1.65 0 001.65-1.65v-6.6a1.65 1.65 0 00-1.65-1.65h-9.9zm-16.5-3.3h-9.9a4.95 4.95 0 00-4.95 4.95v6.6a4.95 4.95 0 004.95 4.95h9.9a4.95 4.95 0 004.95-4.95v-6.6a4.95 4.95 0 00-4.95-4.95zm-9.9 3.3h9.9c.911 0 1.65.739 1.65 1.65v6.6a1.65 1.65 0 01-1.65 1.65h-9.9a1.65 1.65 0 01-1.65-1.65v-6.6c0-.911.739-1.65 1.65-1.65zm-16.5 19.8a4.95 4.95 0 014.95 4.95v6.6a4.95 4.95 0 01-4.95 4.95h-9.9a4.95 4.95 0 01-4.95-4.95v-6.6a4.95 4.95 0 014.95-4.95h9.9zm-9.9 3.3a1.65 1.65 0 00-1.65 1.65v6.6c0 .911.738 1.65 1.65 1.65h9.9a1.65 1.65 0 001.65-1.65v-6.6a1.65 1.65 0 00-1.65-1.65h-9.9zm36.3-3.3h-9.9a4.95 4.95 0 00-4.95 4.95v6.6a4.95 4.95 0 004.95 4.95h9.9a4.95 4.95 0 004.95-4.95v-6.6a4.95 4.95 0 00-4.95-4.95zm-9.9 3.3h9.9c.911 0 1.65.739 1.65 1.65v6.6a1.65 1.65 0 01-1.65 1.65h-9.9a1.65 1.65 0 01-1.65-1.65v-6.6c0-.911.739-1.65 1.65-1.65z" fill="#000091"/><path d="M107.53 93l-1.009 1.003c-2.223 2.213-3.936 4.07-5.973 6.141l-2.07-1.74-1.09-.914-1.84 2.16 1.09.914 3.087 2.596 1.001.84.928-.922c2.562-2.551 4.382-4.585 6.885-7.077l1.009-1.003L107.53 93z" fill="#6A6AF4"/><path d="M85.55 92.164V84.33c0-.367.32-.713.696-.754.063-.007.127-.007.19-.007.853 0 1.705-.002 2.558 0a20.383 20.383 0 007.318-1.337c1.31-.496 2.546-1.144 3.737-1.879.652-.402 1.319-.78 1.969-1.186.364-.228.699-.215 1.057.002.952.577 1.903 1.156 2.867 1.712a20 20 0 006.38 2.344c1.068.198 2.145.32 3.232.331 1.052.01 2.103.008 3.155.013.414.001.728.24.815.625.02.09.022.184.022.277.002 3.541.002 7.083.001 10.624-.001 1.454.006 2.907-.013 4.36a17.14 17.14 0 01-.49 3.785c-.694 2.876-2.059 5.407-3.978 7.65-1.882 2.199-4.129 3.959-6.612 5.431a32.11 32.11 0 01-5.548 2.615 1.017 1.017 0 01-.717-.001 32.14 32.14 0 01-5.473-2.568 28.17 28.17 0 01-4.549-3.294c-1.964-1.759-3.6-3.773-4.775-6.141a17.457 17.457 0 01-1.596-4.945c-.193-1.166-.253-2.34-.248-3.52.01-2.101.003-4.201.003-6.302z" stroke="#6A6AF4" stroke-width="3" stroke-miterlimit="10"/></svg>
